src/img/social-icons/instagram.svg

<svg width="30" height="30" viewBox="0 0 30 30" fill="none" xmlns="http://www.w3.org/2000/svg">
<path d="M20.625 0H9.375C4.19813 0 0 4.19813 0 9.375V20.625C0 25.8019 4.19813 30 9.375 30H20.625C25.8019 30 30 25.8019 30 20.625V9.375C30 4.19813 25.8019 0 20.625 0ZM27.1875 20.625C27.1875 24.2437 24.2437 27.1875 20.625 27.1875H9.375C5.75625 27.1875 2.8125 24.2437 2.8125 20.625V9.375C2.8125 5.75625 5.75625 2.8125 9.375 2.8125H20.625C24.2437 2.8125 27.1875 5.75625 27.1875 9.375V20.625Z" fill="white"/>
<path d="M15 7.5C10.8581 7.5 7.5 10.8581 7.5 15C7.5 19.1419 10.8581 22.5 15 22.5C19.1419 22.5 22.5 19.1419 22.5 15C22.5 10.8581 19.1419 7.5 15 7.5ZM15 19.6875C12.4162 19.6875 10.3125 17.5837 10.3125 15C10.3125 12.4144 12.4162 10.3125 15 10.3125C17.5837 10.3125 19.6875 12.4144 19.6875 15C19.6875 17.5837 17.5837 19.6875 15 19.6875Z" fill="white"/>
<path d="M23.0625 7.93674C23.6144 7.93674 24.0619 7.4893 24.0619 6.93736C24.0619 6.38542 23.6144 5.93799 23.0625 5.93799C22.5106 5.93799 22.0631 6.38542 22.0631 6.93736C22.0631 7.4893 22.5106 7.93674 23.0625 7.93674Z" fill="white"/>
</svg>

<svg width="30" height="30" fill="none" xmlns="http://www.w3.org/2000/svg"><path d="M20.625 0H9.375A9.376 9.376 0 0 0 0 9.375v11.25A9.376 9.376 0 0 0 9.375 30h11.25A9.376 9.376 0 0 0 30 20.625V9.375A9.376 9.376 0 0 0 20.625 0zm6.563 20.625a6.57 6.57 0 0 1-6.563 6.563H9.375a6.57 6.57 0 0 1-6.563-6.563V9.375a6.57 6.57 0 0 1 6.563-6.563h11.25a6.57 6.57 0 0 1 6.563 6.563v11.25z" fill="#fff"/><path d="M15 7.5a7.5 7.5 0 1 0 0 15 7.5 7.5 0 0 0 0-15zm0 12.188A4.694 4.694 0 0 1 10.312 15 4.693 4.693 0 0 1 15 10.312 4.693 4.693 0 0 1 19.688 15 4.694 4.694 0 0 1 15 19.688zm8.063-11.751a1 1 0 1 0 0-2 1 1 0 0 0 0 2z" fill="#fff"/></svg>
